src/sql/media/icons/restore.svg

<svg width="16" height="16" viewBox="0 0 16 16" fill="none" xmlns="http://www.w3.org/2000/svg">
<path d="M13.21 2.19109V4.66109H12.21V2.25109C12.1 1.87109 10.06 1.12109 6.73 1.12109C3.4 1.12109 1.36 1.87109 1.25 2.26109V13.7011C1.25 14.0611 3.25 14.9011 6.73 14.9011C10.21 14.9011 12.16 14.0611 12.21 13.7011V10.9311H13.21V13.7011C13.21 15.2111 9.85 15.9011 6.73 15.9011C3.61 15.9011 0.25 15.2111 0.25 13.7011V2.19109C0.35 0.561094 4.35 0.121094 6.73 0.121094C9.11 0.121094 13.11 0.561094 13.21 2.19109Z" fill="#0078D4"/>
<path d="M15.5101 11.3384C15.2585 11.9932 14.8333 12.5671 14.2801 12.9984C14.1908 13.0654 14.0817 13.1006 13.9701 13.0984C13.8651 13.0984 13.7629 13.0654 13.6777 13.004C13.5926 12.9427 13.5289 12.8561 13.4957 12.7565C13.4626 12.657 13.4615 12.5495 13.4928 12.4493C13.5241 12.3492 13.5861 12.2614 13.6701 12.1984C14.0785 11.8841 14.3903 11.4614 14.5701 10.9784C14.8298 10.2848 14.804 9.51651 14.4985 8.84179C14.193 8.16708 13.6327 7.64089 12.9401 7.37841C12.5969 7.24583 12.2306 7.1837 11.863 7.19573C11.4953 7.20775 11.1338 7.29369 10.8001 7.44841C10.2765 7.68669 9.83981 8.0815 9.55008 8.57841L11.1601 8.13841L11.4201 9.13841L8.20008 9.99841L7.33008 6.76841L8.33008 6.50841L8.71008 7.99841C9.16883 7.24148 9.87742 6.66842 10.7136 6.37814C11.5497 6.08786 12.461 6.09857 13.2901 6.40841C13.7606 6.5849 14.1916 6.85274 14.5582 7.1965C14.9248 7.54025 15.2198 7.95314 15.4261 8.41138C15.6325 8.86962 15.7461 9.36416 15.7605 9.86651C15.7749 10.3689 15.6898 10.8691 15.5101 11.3384Z" fill="#0078D4"/>
</svg>

<svg id="Layer_1" data-name="Layer 1" xmlns="http://www.w3.org/2000/svg" viewBox="0 0 16 16"><defs><style>.cls-1{fill:#212121;}</style></defs><title>restore_16x16</title><path class="cls-1" d="M13.21,2.19V4.66h-1V2.25c-.11-.38-2.15-1.13-5.48-1.13s-5.37.75-5.48,1.14V13.7c0,.36,2,1.2,5.48,1.2s5.43-.84,5.48-1.2V10.93h1V13.7c0,1.51-3.36,2.2-6.48,2.2S.25,15.21.25,13.7V2.19C.35.56,4.35.12,6.73.12S13.11.56,13.21,2.19Z"/><path class="cls-1" d="M15.51,11.34A3.86,3.86,0,0,1,14.28,13a.5.5,0,0,1-.31.1.5.5,0,0,1-.3-.9,2.75,2.75,0,0,0,.9-1.22,2.8,2.8,0,0,0-1.63-3.6,2.74,2.74,0,0,0-2.14.07A2.78,2.78,0,0,0,9.55,8.58l1.61-.44.26,1L8.2,10,7.33,6.77l1-.26L8.71,8a3.8,3.8,0,0,1,4.58-1.59A3.81,3.81,0,0,1,15.51,11.34Z"/></svg>
